X:28
T:Route 19
R:reel
C:Brenda Stubbert
O:Cape Breton Island
S:http://www.cranfordpub.com
D:Music All Around, 2003
Z:psc, (re-formatted,updated 9/19/04)
N:http://www.cranfordpub.com/stubbert
H:                                                        copyrights Stubbert Music, SOCAN
L:1/8
Q:333
M:C|
K:Gdor
A|GFDF G2 AG|FDCD FGAF|GFDF Gbag|fdcA G2 B:|
d|gfdf g2 ag|fdcd fgaf|gfdf gbag|fdcA d2 cA|
gfdf g2 ag|fdcd fgaf|bgaf gbag|fdcA G2 B|]
